X: 28866
T: Mynydd Gelliwastad
R: polka
M: 2/4
K: Bminor
|:"Bm" d2 BA|"Bm" BA F2|"Bm" BA B2|"A" df e2|"Bm" d2 BA|"Bm" BA F2|"Em" E2 F2|"F#7" F2 B2|
"Bm" d2 BA|"Bm" BA F2|"Bm" BA B2|"A" df e2|"Bm" d2 BA|"Bm" BA F2|"F#7" EF E2|"Bm" D4:|
|:"D" f4|"G" g4|"D" a2 f2|"A" g2 e2|"Bm" f2 d2|"A" e2 B2|"D" d2 A2|"G" B2 d2|
"D" f4|"D" d2 f2|"A" e4|"Em" B4|"Bm" dB A2|"D" BA F2|"A" EF E2|"Bm" D4:|

